X:14
T:Black Bess - Rickards
%%VWML:SBG-1-2-34-0
F:http://www.vwml.org/record/SBG/1/2/34
Z:Original Sibelius transcriptions by M. & S. Graebe
M:6/8
I:linebreak $
K:F
V:1 treble nm="P1"
V:1
 F | FAc cBA | GFF F2 F | GGA BAG | ABd c2 c |$ cAc fef | dcA G2 F | Bdd dcA | c2 E F2 x | %9

